!!!!SEGMENT: offering-013b.krn
!!!COM: Bach, Johann Sebastian
!!!CDT: 1685/03/31-1750/07/28
!!!OPR@@DE: Musicalisches Opfer
!!!OPR@EN: Musical Offering
!!!OTL: Trio
!!!OMV: 2
!!!OMD: Allegro
!!!SCA: BWV 1079
!!!voices: 3
**kern	**fb	**kern	**kern
*part3	*part3	*part2	*part1
*staff3	*staff3	*staff2	*staff1
*I"Continuo	*	*I"Violino	*I"Flauto\ntraverso
*I'cont.	*	*I'vln.	*I'flt.
*>[A,B,C,B]	*>[A,B,C,B]	*>[A,B,C,B]	*>[A,B,C,B]
*clefF4	*	*clefG2	*clefG2
*k[b-e-a-]	*	*k[b-e-a-]	*k[b-e-a-]
*M2/4	*	*M2/4	*M2/4
*MM104	*	*MM104	*MM104
*>A	*>A	*>A	*>A
8r	.	8g	8r
=1	=1	=1	=1
8r	.	(8.ccL	2r
8CL	.	.	.
.	.	32ddLL	.
.	.	32ee-JJJ)	.
8BBn	6	(8.ddL	.
8GGJ	.	.	.
.	.	32ee-LL	.
.	.	32ffJJJ)	.
=2	=2	=2	=2
8CL>	.	(16ee-LL	2r
.	.	16dd	.
8D	6nr	16cc	.
.	.	16bnJJ)	.
8E-	6	16ccLL	.
.	.	16gg	.
8CJ	.	16ee-	.
.	.	16ccJJ	.
=3	=3	=3	=3
8GL	n	16bnLL	2r
.	.	16g	.
8F	.	16b	.
.	.	16ddJJ	.
8E-	6	(16ccLL	.
.	.	16b	.
8CJ	.	16cc)	.
.	.	16ee-JJ	.
=4	=4	=4	=4
8G\L<	n	(16ddLL	2r
.	.	16cc	.
8GGJ	.	16bn	.
.	.	16anJJ)	.
8r	.	16gLL	.
.	.	(16dd	.
8G	6 n	16ee-)	.
.	.	16bnJJ	.
!!LO:LB:g=original
=5	=5	=5	=5
8A-L	5 3	(16ccLL	2r
.	.	16bn	.
8G	.	16cc)	.
.	.	16aa-'JJ	.
8F	6 5	(16aa-LL	.
.	.	16gg	.
8DJ	.	16aa-)	.
.	.	16b-X'JJ	.
=6	=6	=6	=6
8GL	.	(16b-LL	2r
.	.	16an	.
8F	.	16b-)	.
.	.	16gg'JJ	.
8En	6 5-r	(16ggLL	.
.	.	16ff#X	.
8CJ	.	16gg)	.
.	.	16a-X'JJ	.
=7	=7	=7	=7
8FL	.	(16a-LL	2r
.	.	16g	.
8E-X	.	16a-)	.
.	.	16ffn'JJ	.
8D	5-r	(16ffLL	.
.	.	16een	.
8CJ	.	16ff)	.
.	.	16a-'JJ	.
=8	=8	=8	=8
.	.	(8qqa-/	.
16BBnLL	6 5	4g)	2r
16GG	.	.	.
16BB	.	.	.
16DJJ	.	.	.
(16GLL	7 n	8r	.
16E-)	.	.	.
(16F	4nr 2	8g	.
16DJJ)	.	.	.
=9	=9	=9	=9
8E-L	6	(8.ggtL	2r
8A-	.	.	.
.	.	32ffLL	.
.	.	32ee-JJJ)	.
8D	7 5-r	(8.ffTL	.
8GJ	7 n	.	.
.	.	32ee-LL	.
.	.	32ddJJJ)	.
!!LO:LB:g=original
=10	=10	=10	=10
8CL	.	(16ee-LL	4r
.	.	16ff	.
8D	7	16gg)	.
.	.	16ee-'JJ	.
8E-	6	(16ccLL	8r
.	.	16dd	.
8AAnJ	6#\ 5-r	16ee-)	8cc
.	.	16cc'JJ	.
=11	=11	=11	=11
8BB-L	6	8dd	(8.ggL
8E-	.	4g	.
.	.	.	32aanLL
.	.	.	32bb-JJJ)
8C	6nr 5	.	(8.aaL
8DJ	#	8f#X	.
.	.	.	32bb-LL
.	.	.	32cccJJJ)
!LO:TX:b:t=[segno]	!	!	!LO:TX:a:t=[segno]
=12||	=12||	=12||	=12||
8GGL	.	8gL	(16bb-LL
.	.	.	16aan
8AAn	6#\	8dJ	16gg
.	.	.	16ff#XJJ)
8BB-	6	[4dd	16ggLL
.	.	.	16ddd
8GGJ	.	.	16bb-
.	.	.	16ggJJ
=13	=13	=13	=13
8DL	#	8ddL]	16ff#XLL
.	.	.	16dd
8C	.	8dJ	16ff#
.	.	.	16aanJJ
8BB-	6	[4dd	(16ggLL
.	.	.	16ff#
8GGJ	.	.	16gg)
.	.	.	16bb-JJ
=14	=14	=14	=14
8DL	#	8ddL]	(16aanLL
.	.	.	16gg
8DDJ	.	8aan	16ff#X
.	.	.	16eenJJ)
8r	.	8ff#X	16ddLL
.	.	.	(16aa
8D	6 #	[8ddJ	16bb-)
.	.	.	16ff#JJ
!!LO:LB:g=original
=15	=15	=15	=15
(16E-LL	7	8ddL]	(16ggLL
16DJ)	.	.	16ff#X
8E-J	.	8gJ	16gg)
.	.	.	16eee-'JJ
8r	7	(16ccLL	(16eee-LL
.	.	16b-J)	16ddd
8AAn	.	[8ccJ	16eee-)
.	.	.	16ffn'JJ
=16	=16	=16	=16
(16DLL	7	8ccL]	(16ffLL
16CJ)	.	.	16een
8DJ	.	8fJ	16ff)
.	.	.	16ddd'JJ
8r	7	(16b-LL	(16dddLL
.	.	16anJ)	16ccc
8GG	.	[8b-J	16ddd)
.	.	.	16ee-X'JJ
=17	=17	=17	=17
(16CLL	7	8b-L]	(16ee-LL
16BBnJ)	.	.	16dd
8CJ	.	8g	16ee-)
.	.	.	16ccc'JJ
8r	.	8e-	(16cccLL
.	.	.	16bbn
8c	6-r	8a-XJ	16ccc)
.	.	.	16ee-'JJ
=18	=18	=18	=18
.	#4| 2	.	(8qqee-/
8cL	.	16f#XLL	4dd)
.	.	16d	.
8An	.	16f#	.
.	.	16anJJ	.
8F#X	6 5	16ccLL	8r
.	.	16ff#X	.
8DJ	.	16aan	8dd
.	.	16ccJJ	.
=19	=19	=19	=19
8GL	.	16b-LL	(8.dddtL
.	.	16ddJJ	.
8BB-	6	4gg	.
.	.	.	32cccLL
.	.	.	32bb-JJJ)
8AAn	7	.	(8.cccTL
8DJ	7 #	8ff#X	.
.	.	.	32bb-LL
.	.	.	32aanJJJ)
!!LO:LB:g=original
=20	=20	=20	=20
8GL	.	8ggL	(16bb-LL
.	.	.	16ccc
8Fn	.	8gJ	16ddd)
.	.	.	16bb-'JJ
8E-	.	[4gg	(16ggLL
.	.	.	16aan
8DJ	.	.	16bb-)
.	.	.	16gg'JJ
=21	=21	=21	=21
(8.CL	6-r 5	8ggL]	(16aa-XLL
.	.	.	16gg
.	.	16ffL	16aa-)
32DLL	.	16ee-JJ	16cc'JJ
32E-JJJ)	.	.	.
(8.DL	6 5-r	[4ff	(16b-LL
.	.	.	16an
.	.	.	16b-)
32E-LL	.	.	16aa-'JJ
32FJJJ)	.	.	.
=22	=22	=22	=22
8E-L	9	8ffL]	(16ggLL
.	.	.	16aa-
8D	.	16gL	16bb-)
.	.	16b-JJ	16gg'JJ
8C	3	[4ee-	(16ee-LL
.	.	.	16ff
8BB-J	.	.	16gg)
.	.	.	16ee-'JJ
=23	=23	=23	=23
(8.AAnL	6 5	8ee-L]	(16ffLL
.	.	.	16ee-
.	.	16ddL	16ff)
32BBnLL	.	16ccJJ	16a-X'JJ
32CJJJ)	.	.	.
(8.BBL	6 5	[4dd	(16gLL
.	.	.	16f#X
.	.	.	16g)
32CLL	.	.	16ffn'JJ
32DJJJ)	.	.	.
=24	=24	=24	=24
8CL	9	8ddL]	(16ee-LL
.	.	.	16ff
16cL	.	16e-L	16gg)
16B-XJJ	.	16gJJ	16ee-'JJ
8A-XL	3	(16ccLL	8ccL
.	.	16dd	.
8GJ	.	16ee-	[8cccJ
.	.	16ccJJ)	.
!!LO:LB:g=original
=25	=25	=25	=25
(8.FL	6-r 5	(16dd-XLL	8cccL]
.	.	16cc	.
.	.	16dd-)	16bb-L
32GLL	.	16f'JJ	16aa-JJ
32A-JJJ)	.	.	.
(8.GL	6 5-r	(16e-LL	[4bb-
.	.	16dn	.
.	.	16e-)	.
32A-LL	.	16dd-X'JJ	.
32B-JJJ)	.	.	.
=26	=26	=26	=26
8A-L	9	(16ccLL	8bb-L]
.	.	16dd-X	.
8G	.	16ee-)	16ccL
.	.	16cc'JJ	16ee-JJ
8F	3	(16a-LL>	[4aa-
.	.	16b-	.
8E-J	.	16cc)	.
.	.	16a-'JJ	.
=27	=27	=27	=27
(8.DL	6 5-r	(16b-LL	8aa-L]
.	.	16a-	.
.	.	16b-)	16ggL
32EnLL	.	16d-X'JJ	16ffJJ
32FJJJ)	.	.	.
(8.EL	6 5-r	(16cLL	[4gg
.	.	16Bn	.
.	.	16c)	.
32FLL	.	16b-X'JJ	.
32GJJJ)	.	.	.
=28	=28	=28	=28
(16FLL	9	(16a-LL>	8ggL]
16G	.	16b-	.
16A-	6	16cc)	16a-L
16FJJ)	.	16a-'JJ	16ccJJ
(16DLL	5-r	8fL	[4ff
16E-X	.	.	.
16F	.	8aa-J	.
16DJJ)	.	.	.
=29	=29	=29	=29
(16BBnLL	6 5	4.gg	8ffL]
16C	.	.	.
16D	.	.	16ee-L
16BBJJ)	.	.	16ddJJ
(16CLL>	.	.	[4ee-
16D	.	.	.
16E-	.	8cc	.
16CJJ)	.	.	.
!!LO:LB:g=original
=30	=30	=30	=30
(16DLL	9	[4ff	8ee-L]
16E-	.	.	.
16F	6	.	16aa-L
16DJJ)	.	.	16ffJJ
.	7 n	.	(8qqee-/
(16GLL	.	(16ffLL]	[4dd)
16An	.	16ee-	.
16Bn	.	16dd	.
16GJJ)	.	16ffJJ)	.
=31	=31	=31	=31
(16cLL	9	(16ee-LL	8ddL]
16d	.	16ff	.
16e-	6	16gg	8ccJ
16cJJ)	.	16ee-JJ)	.
(16A-XLL	.	8ccL	8r
16B-X	.	.	.
16c	.	([8ccJ	([8ee-
16A-JJ)	.	.	.
=32	=32	=32	=32
8F#XL	7 5-r	16ccLL]	16ee-LL]
.	.	16bn	16dd
(8FF#X	.	16cc)	16ee-)
.	.	16ee-'JJ	16ccc'JJ
8FF#	.	(16ccLL	(16ee-LL
.	.	16b	16dd
8FF#J)	.	16cc)	16ee-)
.	.	16ee-'JJ	16ccc'JJ
=33	=33	=33	=33
8GGL	6 4	(8ccTL	8ee-TL
16GL	5 n	8bnJ)	8ddJ
16AnJJ	.	.	.
8BnL	6	4r	8r
8GJ	.	.	8dd
=34	=34	=34	=34
8cL	9	4r	(16ee-LL
.	.	.	16gg)
8B-X	.	.	(16ddd
.	.	.	16cccJJ)
8An	5-r	(16cLL	(8.ee-TL
.	.	16f	.
8FJ	.	16b-X	.
.	.	16anJJ)	32ddLL
.	.	.	32ccJJJ)
!!LO:LB:g=original
=35	=35	=35	=35
8B-L	9	4r	(16ddLL
.	.	.	16ff)
8AnJ	.	.	(16ccc
.	.	.	16bb-JJ)
8GL	3	(16B-LL	(8.ddtL
.	.	16d	.
16F#XL	.	16an	.
16GJJ	.	16gJJ)	32ccLL
.	.	.	32b-JJJ)
=36	=36	=36	=36
8AnL	9	4r	(16ccLL
.	.	.	16ee-)
8G	.	.	(16bb-
.	.	.	16aanJJ)
8F#X	5nr	(16AnLL	(8.ccTL
.	.	16d	.
8DJ	.	16g	.
.	.	16f#XJJ)	32b-LL
.	.	.	32anJJJ)
=37	=37	=37	=37
8GL	9	4G	(16b-LL
.	.	.	16dd)
8Fn	.	.	(16aan
.	.	.	16ggJJ)
8E-	5 3	16r	(8.b-TL
.	.	(16gLL	.
8DJ	.	16an	.
.	.	16b-JJ)	32anLL
.	.	.	32gJJJ)
=38	=38	=38	=38
8E-L	6	(16cLL	[2gg
.	.	16e-)	.
8C	.	(16b-	.
.	.	16anJJ)	.
8F	4nr 2	(16dLL	.
.	.	16f)	.
8DJ	.	(16cc	.
.	.	16bnJJ)	.
=39	=39	=39	=39
8E-L	6_	(16ccLL	2gg_
.	.	16dd	.
8G	.	16ee-)	.
.	.	16cc'JJ	.
8E-	.	(16gLL	.
.	.	16an	.
8DJ	6 4	16b-X)	.
.	.	16g'JJ	.
!!LO:LB:g=original
=40	=40	=40	=40
8C#XL	7 5	(16enLL	2gg_
.	.	16g)	.
8D	.	(16b-	.
.	.	16anJJ)	.
8En	6#\ 4#| 3	(16gLL>	.
.	.	16b-)	.
8AAnJ	.	(16dd	.
.	.	16cc#XJJ)	.
=41	=41	=41	=41
8DL	4	(8dd	(16ggLL]
.	.	.	16ff#X)
8DDJ	#	4ccc)	(16aan
.	.	.	16ggJJ)
8r	.	.	16ff#'LL
.	.	.	(16ee-X
8F#X	6 5	[8dd	16dd
.	.	.	16ccJJ)
=42	=42	=42	=42
8GL	.	16ddLL]	(16b-LL
.	.	16bb-J	16dd)
8E-X	6 5	[8ccJ	(16ff#X
.	.	.	16ggJJ)
8Fn	n	16ccLL]	(16anLL
.	.	16aanJ	16cc)
8DJ	6 5nr	[8b-J	(16een
.	.	.	16ffnJJ)
=43	=43	=43	=43
8E-L	.	16b-LL]	(16gLL
.	.	16ggJ	16b-)
8C	6nr 5	[8anJ	(16dd
.	.	.	16ee-XJJ)
8AAn	6#\	8aL]	16f#XLL
.	.	.	(16ee-
8DDJ	7 #	8ff#XJ	16dd
.	.	.	16ccJJ)
=44	=44	=44	=44
8EE-L	5 3	8.ggL	16b-LL
.	.	.	16gg
8C	6nr 5	.	16ee-
.	.	16aanJk	16ccJJ
8D	#	8.ff#XtL	8b-TL
8DDJ	.	.	16anL
.	.	16ggJk	16gJJ
!!LO:LB:g=original
=45	=45	=45	=45
4GG	.	4gg	16gLL
.	.	.	16d
.	.	.	16g
.	.	.	16anJJ
4r	.	8r	16b-LL
.	.	.	16g
.	.	8d	16b-
.	.	.	16ccJJ
=46	=46	=46	=46
8r	.	(8.gL	[2dd
8GL	.	.	.
.	.	32anLL	.
.	.	32b-JJJ)	.
8F#X	6	(8.aL>	.
8DJ	.	.	.
.	.	32b-LL	.
.	.	32ccJJJ)	.
=47	=47	=47	=47
4GG	.	(16b-LL	(16ddLL]
.	.	16an	16cc
.	.	16g	16b-
.	.	16f#XJJ)	16anJJ)
4BB-	6	16gLL>	8g
.	.	16dd	.
.	.	16b-	8r
.	.	16gJJ	.
=48	=48	=48	=48
4D	#	(16f#XLL	8r
.	.	16d	.
.	.	16f#	4ddd
.	.	16anJJ)	.
4E-	7	(16gLL	.
.	.	16f#	.
.	6#\ 5-r	16g)	8ccc#X
.	.	16b-'JJ	.
=49	=49	=49	=49
4FF#X	6	(16anLL	8dddL
.	.	16g	.
.	.	16f#X	8aanJ
.	.	16enJJ)	.
8r	.	16dLL	[4bb-
.	.	(16a	.
8D	6 #	16b-	.
.	.	16f#JJ)	.
!!LO:LB:g=original
=50	=50	=50	=50
4C#X	7	(16gLL>	(8bb-L]
.	.	16f#X	.
.	6nr	16g)	8aanJ)
.	.	16ee-'JJ	.
4Cn	6-r	(16ee-LL>	8r
.	.	16dd	.
.	.	16ee-)	[8aa-X
.	.	16fn'JJ	.
=51	=51	=51	=51
4BBn	7	(16fLL	(8aa-L]
.	.	16en	.
.	6	16f)	8ggJ)
.	.	16dd'JJ	.
[4BB-X	6	(16ddLL	8r
.	.	16cc#X	.
.	.	16dd)	[8gg
.	.	16e-X'JJ	.
=52	=52	=52	=52
8BB-L]	4 2	(16e-LL	(8ggL]
.	.	16d	.
8AAn	6#\ 5-r	16e-)	8ff#XJ)
.	.	16cc'JJ	.
8AA-X	7 5	(16ccLL	16r
.	.	16bn	(16ddLL
8GGJ	6 4	16cc)	16ee-
.	.	16e-'JJ	16ggJJ)
=53	=53	=53	=53
.	.	(8qqe-/	.
8FF#XL	6 5 n	4d)	(16cccLL
.	.	.	16aan
16EEnL	.	.	16ff#X)
16DDJJ	.	.	16cccJJ
8GGL	.	8r	(16bb-LL
.	.	.	16gg)
8CJ	4#| 2	8d	(16aa
.	.	.	16ff#JJ)
=54	=54	=54	=54
8BB-L	6	(8.ddtL	16ggLL
.	.	.	16ddJJ
8E-	7	.	4gg
.	.	32ccLL	.
.	.	32b-JJJ)	.
8AAn	7	(8.ccTL	.
8DJ	7 #	.	8ff#X
.	.	32b-LL	.
.	.	32anJJJ)	.
!!LO:LB:g=original
=55	=55	=55	=55
8GGL	.	(16b-LL	4gg
.	.	16cc	.
8AAn	_	16dd)	.
.	.	16b-'JJ	.
8BB-	6	(16gLL	8r
.	.	16an	.
8GGJ	.	16b-)	[8g
.	.	16g'JJ	.
=56	=56	=56	=56
8CL>	6-r 5	(16a-XLL	8gL]
.	.	16g	.
8F	.	16a-)	8fJ
.	.	16ff'JJ	.
8D	6 5-r	(16ffLL	8r
.	.	16ee-	.
8BB-J	.	16ff)	[8b-
.	.	16a-'JJ	.
=57	=57	=57	=57
.	.	(8qqa-/	.
8E-L	.	4g)	(16b-LL]
.	.	.	16a-
8G	.	.	16b-)
.	.	.	16gg'JJ
8En	6 5-r	8r	(16ggLL
.	.	.	16ff
8CJ	.	[8cc	16gg)
.	.	.	16b-'JJ
=58	=58	=58	=58
.	.	.	(8qqb-/
8FL	.	(16ccLL]	4a-)
.	.	16bn	.
8A-	.	16cc)	.
.	.	16aa-'JJ	.
8F	6 5	(16aa-LL	8r
.	.	16gg	.
8DJ	.	16aa-)	[8ff
.	.	16cc'JJ	.
=59	=59	=59	=59
.	.	(8qqcc/	.
8GL	7 n	4bn)	(16ffLL]
.	.	.	16ee-
8An	.	.	16ff)
.	.	.	16ddd'JJ
8Bn	6 5	8r	(16dddLL
.	.	.	16ccc
8GJ	.	[8dd	16ddd)
.	.	.	16ff'JJ
!!LO:LB:g=original
=60	=60	=60	=60
8cL	9	8ddL]	(16ee-LL
.	.	.	16dd
8B-X	.	8ccJ	16ee-)
.	.	.	16ccc'JJ
8A-X	3	8r	(16cccLL
.	.	.	16bbn
8GJ	.	[8cc	16ccc)
.	.	.	16ee-'JJ
=61	=61	=61	=61
(8.FL	6-r 5	8ccL]	(16dd-XLL
.	.	.	16cc
.	.	8b-J	16dd-)
32GLL	.	.	16bb-X'JJ
32A-JJJ)	.	.	.
(8.GL	6 5-r	8r	(16bb-LL
.	.	.	16aa-
.	.	([8ee-	16bb-)
32A-LL	.	.	16dd-'JJ
32B-JJJ)	.	.	.
=62	=62	=62	=62
8A-L	9	8ee-L]	(16ccLL
.	.	.	16b-
8G	.	8een	16cc)
.	.	.	16aa-'JJ
8F	3	8ff)	(16aa-LL
.	.	.	16gg
8E-XJ	.	[8a-J	16aa-)
.	.	.	16cc'JJ
=63	=63	=63	=63
(8.DL	6 5-r	8a-L]	(16b-LL
.	.	.	16a-
.	.	8gJ	16b-)
32EnLL	.	.	16gg'JJ
32FJJJ)	.	.	.
(8.EL	6 5-r	8r	(16ggLL
.	.	.	16ff
.	.	([8cc	16gg)
32FLL	.	.	16b-'JJ
32GJJJ)	.	.	.
=64	=64	=64	=64
.	9	.	(8qqb-/
8FL	.	16ccLL]	4a-)
.	.	16b-	.
8E-X	.	16cc)	.
.	.	16ff'JJ	.
8D	3	(16ffLL	8r
.	.	16een	.
8CJ	.	16ff)	[8ff
.	.	16a-'JJ	.
!!LO:LB:g=original
=65	=65	=65	=65
(8.BBnL	6 5	(16gLL	8ffL]
.	.	16f	.
.	.	16g)	8ee-J
32CLL	.	16ee-'JJ	.
32DJJJ)	.	.	.
(8.CL>	.	(16ee-LL	8r
.	.	16dd	.
.	.	16ee-)	[8ee-
32DLL	.	16g'JJ	.
32E-JJJ)	.	.	.
=66	=66	=66	=66
(8.AAnL	6 5-r	(16fLL	8ee-L]
.	.	16e-	.
.	.	16f)	8ddJ
32BBnLL	.	16dd'JJ	.
32CJJJ)	.	.	.
(8.BBL	6 5-r	(16ddLL	8r
.	.	16cc	.
.	.	16dd)	8g
32CLL	.	16f'JJ	.
32DJJJ)	.	.	.
=67	=67	=67	=67
8CL	.	16e-LL	(8.ccL
.	.	16gJJ	.
8AA-X	.	4cc	.
.	.	.	32ddLL
.	.	.	32ee-JJJ)
8FF	6 5	.	(8.ddL
8GGJ	n	8bn	.
.	.	.	32ee-LL
.	.	.	32ffJJJ)
=68	=68	=68	=68
4C	.	4cc	(16ee-LL
.	.	.	16dd
.	.	.	16cc
.	.	.	16bnJJ)
4E-	6	4r	16ccLL
.	.	.	16gg
.	.	.	16ee-
.	.	.	16ccJJ
=69	=69	=69	=69
4G	n	8r	16bnLL
.	.	.	16g
.	.	4gg	16b
.	.	.	16ddJJ
4A-	7	.	(16ccLL
.	.	.	16b
.	6#\	8ff#X	16cc)
.	.	.	16ee-'JJ
!!LO:LB:g=original
=70	=70	=70	=70
4BBn	6#\	8ggL	(16ddLL
.	.	.	16cc
.	.	8ddJ	16bn
.	.	.	16anJJ)
8r	.	[4ee-	(16gLL
.	.	.	16dd
8G	6 n	.	16ee-
.	.	.	16bnJJ)
=71	=71	=71	=71
4F#X	7 5	8ee-L]	(16ccLL
.	.	.	16bn
.	6 _	8ddJ	16cc)
.	.	.	16aa-'JJ
4Fn	6 -	8r	(16aa-LL
.	.	.	16gg
.	.	[8dd-X	16aa-)
.	.	.	16b-X'JJ
=72	=72	=72	=72
4En	7	8dd-L]	(16b-LL
.	.	.	16an
.	6	8ccJ	16b-)
.	.	.	16gg'JJ
[4E-X	6	8r	(16ggLL
.	.	.	16ff
.	.	[8cc	16gg)
.	.	.	16a-X'JJ
=73	=73	=73	=73
8E-L>]	4 2	8ccL]	(16a-LL
.	.	.	16g
8D	6nr 5-r	8bnJ	16a-)
.	.	.	16ff'JJ
8D-X	6	16r	(16ffLL
.	.	(16gLL	16een
8CJ	6 4	16a-	16ff)
.	.	16ccJJ)	16a-'JJ
=74	=74	=74	=74
.	.	.	(8qqa-/
8BBnL	6 5	(16ffLL	4g)
.	.	16dd	.
16AAnL	.	16bn)	.
16GGJJ	.	16ff'JJ	.
8CL>	.	(16ee-LL	8r
.	.	16cc)	.
8FJ	4nr 2	(16dd	8g
.	.	16bJJ)	.
!!LO:LB:g=original
=75	=75	=75	=75
8E-L	6	16ccLL<	(8.ggtL
.	.	16gJ	.
8A-	7	[8ccJ	.
.	.	.	32ffLL
.	.	.	32ee-JJJ)
8D	7	8ccL]	(8.ffTL
8GJ	7 n	8bnJ	.
.	.	.	32ee-LL
.	.	.	32ddJJJ)
=76	=76	=76	=76
8CL>	.	[4cc	16ee-LL
.	.	.	16ff
8D	.	.	16gg
.	.	.	16ee-JJ
8E-	6	16ccLL<]	4cc
.	.	16b-X	.
8CJ	.	16a-	.
.	.	16gJJ	.
=77	=77	=77	=77
8FL>	9	(16a-LL	4r
.	.	16cc)	.
8E-	.	(16gg	.
.	.	16ffJJ)	.
8D	6 5-r	(8.a-TL	(16ffLL
.	.	.	16bb-)
8BB-J	.	.	(16eee-
.	.	32gLL	16dddJJ)
.	.	32fJJJ)	.
=78	=78	=78	=78
8E-L	9	(16gLL	4r
.	.	16b-)	.
8DJ	.	(16ff	.
.	.	16ee-JJ)	.
8CL	3	(8.gtL	(16ee-LL
.	.	.	16gg)
16BBnL	.	.	(16ddd
16CJJ	.	32fLL	16cccJJ)
.	.	32e-JJJ)	.
=79	=79	=79	=79
8DL	9	(16fLL>	4r
.	.	16a-)	.
8C	.	(16ee-	.
.	.	16ddJJ)	.
8BBn	6 5-r	(8.fTL	(16ddLL
.	.	.	16ff)
8GGJ	.	.	(16ccc
.	.	32e-LL	16bbnJJ)
.	.	32dJJJ)	.
!!LO:LB:g=original
=80	=80	=80	=80
8CL	9	(16e-LL	4r
.	.	16g)	.
8BB-X	.	(16dd	.
.	.	16ccJJ)	.
8AA-	3	(8.e-TL	16r
.	.	.	16ccLL
8GGJ	.	.	16dd
.	.	32dLL	16ee-JJ
.	.	32cJJJ)	.
=81	=81	=81	=81
8AA-L	6	[2cc	(16fLL
.	.	.	16a-)
8FF	.	.	(16ee-
.	.	.	16ddJJ)
8BB-	4nr 2	.	(16gLL
.	.	.	16b-)
8GGJ	.	.	(16ff
.	.	.	16eenJJ)
=82	=82	=82	=82
8AA-L	6_	2cc_	(16ffLL
.	.	.	16gg
8C	.	.	16aa-)
.	.	.	16ff'JJ
8AA-	.	.	(16ccLL
.	.	.	16dd
8GGJ	6 4	.	16ee-X)
.	.	.	16cc'JJ
=83	=83	=83	=83
8FF#XL	7 5	2cc_	(16anLL
.	.	.	16cc)
8GG	.	.	(16ee-
.	.	.	16ddJJ)
8AAn	6#\	.	(16ccLL
.	.	.	16ee-)
8DDJ	7 #	.	(16gg
.	.	.	16ff#XJJ)
=84	=84	=84	=84
8GGL	5 4	16ccLL]	(8ggL
.	.	16bn	.
8FnJ	4nr -	(16dd	8aa-XJ)
.	.	16ccJJ)	.
8r	.	(16b-LL	8r
.	.	16a-X)	.
8Bn	6 5-r	(16g	[8ddd
.	.	16fJJ)	.
!!LO:LB:g=original
=85	=85	=85	=85
8cL	9	(16e-LL	16dddLL]
.	.	16g)	16eee-J
8A-	6 5	(16bn	[8ffJ
.	.	16ccJJ)	.
8B-X	9	(16dLL	16ffLL]
.	.	16f)	16dddJ
8GJ	6 5	(16an	[8ee-J
.	.	16b-XJJ)	.
=86	=86	=86	=86
8A-L	9	(16cLL	16ee-LL]
.	.	16e-)	16cccJ
8F	6 5	(16g	8ddJ
.	.	16a-XJJ)	.
8D	6nr 5-r	16BnLL	8r
.	.	(16a-	.
8GGJ	7 n	16g	8bbn
.	.	16fJJ)	.
=87	=87	=87	=87
8AA-L	3	16e-LL	8cccL
.	.	16cc	.
8F	6 5	16a-	8ccJ
.	.	16fJJ	.
8G	5 n	8e-TL	8gL
8GGJ	.	16dL	8bnJ
.	.	16cJJ	.
=88	=88	=88	=88
!!LO:TX:a:i:t=Fine.
4CC;<	.	4c;y	4cc;
*>C	*>C	*>C	*>C
4r	.	8r	4r
.	.	8ee-	.
=89	=89	=89	=89
8r	.	(8.e-L	4r
8CL	.	.	.
.	.	32fLL	.
.	.	32gJJJ)	.
8D	6	(8.fL	8r
8BB-J	.	.	8b-
.	.	32gLL	.
.	.	32a-JJJ)	.
=90	=90	=90	=90
8E-L	.	8g	(8.bb-2sTL
8G	6	4ee-	.
.	.	.	32aa-LL
.	.	.	32ggJJJ)
8F	7	.	(8.aa-TL
8B-J	7	8dd	.
.	.	.	32ggLL
.	.	.	32ffJJJ)
!!LO:LB:g=original
=91	=91	=91	=91
8E-L	.	(16ee-LL	8gg
.	.	16ff)	.
16e-L	.	(16gg	4b-
16dJJ	.	16ffJJ)	.
8e-L	.	(16aa-LL	.
.	.	16gg)	.
[8A-J	6 5	(16ff	8cc
.	.	16ee-JJ)	.
=92	=92	=92	=92
16A-LL]	4 2	4dd	(16b-LL
16FJ	.	.	16a-)
8B-J	6	.	(16g
.	.	.	16a-JJ)
8BB-L	5	8r	(16fLL
.	.	.	16g
16AA-L	6	8ff	16a-
16GGJJ	.	.	16b-JJ)
=93	=93	=93	=93
8AA-L	6	(8.fL	4cc
8A-	.	.	.
.	.	32gLL	.
.	.	32a-JJJ)	.
8B-	6 5 -	(8.gL	8r
8cJ	n	.	8cc
.	.	32a-LL	.
.	.	32b-JJJ)	.
=94	=94	=94	=94
8FL	.	8a-	(8.cccTL
8AA-	6	4ff	.
.	.	.	32bb-LL
.	.	.	32aa-JJJ)
8GG	7	.	(8.bb-TL
8CJ	7 n	8een	.
.	.	.	32aa-LL
.	.	.	32ggJJJ)
=95	=95	=95	=95
8FFL	.	(16ffLL	8aa-
.	.	16gg)	.
16FL	.	(16aa-	4cc
16E-JJ	.	16ggJJ)	.
8FL	.	(16bb-LL	.
.	.	16aa-)	.
[8B-J	6 5 -	(16gg	8dd-X
.	.	16ffJJ)	.
=96	=96	=96	=96
16B-LL]	4nr 2	4een	(16ccLL
16GJ	.	.	16b-)
8cJ	_	.	(16a-
.	.	.	16b-JJ)
(16B-LL	4nr 2	8r	(16gLL
16A-	.	.	16a-
16G	.	16gLL	16b-
16FJJ)	.	16a-JJ	16ccJJ)
!!LO:LB:g=original
=97	=97	=97	=97
(8EnL	7-r 5-r	(16b-LL	(16dd-XLL
.	.	16a-	16cc
8E	.	16b-)	16dd-)
.	.	16gg'JJ	16bb-'JJ
8E	.	(16ggLL	(16bb-LL
.	.	16ff	16aa-
8EJ)	.	16gg)	16bb-)
.	.	16b-'JJ	16dd-'JJ
=98	=98	=98	=98
(8FL	.	(16a-LL	(16ccLL
.	.	16g	16b-
8F	.	16a-)	16cc)
.	.	16ff'JJ	16aa-'JJ
8F	.	(16ffLL	(16aa-LL
.	.	16een	16gg
8FJ)	.	16ff)	16aa-)
.	.	16a-'JJ	16cc'JJ
=99	=99	=99	=99
(8CL	7 n	(16gLL	(16b-LL
.	.	16f	16a-
8C	.	16g)	16b-)
.	.	16een'JJ	16gg'JJ
8C	.	(16eeLL	(16ggLL
.	.	16dd	16ff
8CJ)	.	16ee)	16gg)
.	.	16g'JJ	16b-'JJ
=100	=100	=100	=100
(16FLL	.	(16fLL	16a-LL
16G	.	16en	16gJ
16A-	6	16f	8fJ
16B-JJ)	.	16gJJ)	.
16cLL	6 4	16a-LL	8r
16dJ	.	16b-	.
8e-XJ	4nr 2	16cc	16anLL
.	.	16ddJJ	16b-JJ
=101	=101	=101	=101
(8F#XL	7 5	(16ee-XLL	(16ccLL
.	.	16dd	16b-
8F#	.	16ee-)	16cc)
.	.	16ccc'JJ	16aan'JJ
8F#	.	(16cccLL	(16aaLL
.	.	16bb-	16gg
8F#J)	.	16ccc)	16aa)
.	.	16ee-'JJ	16cc'JJ
=102	=102	=102	=102
(8GL	.	(16ddLL	(16b-LL
.	.	16cc	16an
8G	.	16dd)	16b-)
.	.	16bb-'JJ	16gg'JJ
8G	.	(16bb-LL	(16ggLL
.	.	16aan	16ff#X
8GJ)	.	16bb-)	16gg)
.	.	16dd'JJ	16b-'JJ
!!LO:LB:g=original
=103	=103	=103	=103
(8DL	7 #	(16ccLL	(16anLL
.	.	16b-	16g
8D	.	16cc)	16a)
.	.	16aan'JJ	16ff#X'JJ
8D	.	(16aaLL	(16ff#LL
.	.	16gg	16een
8DJ)	.	16aa)	16ff#)
.	.	16cc'JJ	16a'JJ
=104	=104	=104	=104
(16GLL	.	8b-'L	4g
16F#X	.	.	.
16G)	.	(8bb-	.
16e-'JJ	.	.	.
(16e-LL	6	8ccc	8r
16d	.	.	.
16e-)	5	8bb-J)	[8ee-
16G'JJ	.	.	.
=105	=105	=105	=105
(16FnLL	7 n	8an'L	8ee-L]
16E-	.	.	.
16F)	6	(8aan	8ddJ
16d'JJ	.	.	.
(16dLL	6	8bb-	8r
16c	.	.	.
16d)	5nr	8aaJ)	[8dd
16F'JJ	.	.	.
=106	=106	=106	=106
(16E-LL	7	8g'L	8ddL]
16D	.	.	.
16E-)	6	(8gg	8ccJ
16c'JJ	.	.	.
(16cLL	6nr	8aan	8r
16B-	.	.	.
16c)	5	8ggJ)	[8cc
16E-'JJ	.	.	.
=107	=107	=107	=107
8DL	7_ #	2ff#Xt	(16ccLL]
.	.	.	16ee-)
8DDJ	.	.	(16bb-
.	.	.	16aanJJ)
8r	.	.	(16anLL
.	.	.	16cc)
8D	.	.	(16ee-
.	.	.	16ddJJ)
!!LO:LB:g=original
=108	=108	=108	=108
8E-L	7_ 5	2ggt	(16b-LL
.	.	.	16dd)
8EE-J	.	.	(16aan
.	.	.	16ggJJ)
8r	.	.	(16gLL
.	.	.	16b-)
8E-	.	.	(16dd
.	.	.	16ccJJ)
=109	=109	=109	=109
8FF#XL	7 5	2ee-T	(16anLL
.	.	.	16cc)
8AAn	.	.	(16gg
.	.	.	16ff#XJJ)
8C	6#\ 4#| 3	.	(16f#XLL
.	.	.	16a)
8AAJ	.	.	(16cc
.	.	.	16b-JJ)
=110	=110	=110	=110
8BB-L	6	[2ddt	(16gLL
.	.	.	16b-)
8GG	.	.	(16dd
.	.	.	16ee-JJ)
8C	4#| 2	.	(16anLL
.	.	.	16cc)
8AAnJ	.	.	(16gg
.	.	.	16ff#XJJ)
=111	=111	=111	=111
8DL	6 4	16ddLL]	(16b-LL
.	.	16gg	16dd)
8BB-	.	(16ccc	(16ff#X
.	.	16bb-JJ)	16ggJJ)
8E-	6	8r	(16ccLL
.	.	.	16ee-)
8CJ	.	[8ee-	(16bb-
.	.	.	16aanJJ)
=112	=112	=112	=112
8F#XL	.7 5	(16ee-LL>]	[2aan
.	.	16cc)	.
8An	.	(16g	.
.	.	16f#XJJ)	.
8D	7 #	(16ccLL	.
.	.	16an)	.
8F#J	.	(16e-	.
.	.	16dJJ)	.
!!LO:LB:g=original
=113	=113	=113	=113
8BB-L	7	(8.ddtL	16aaLL]
.	.	.	16ff#XJ
8E-	7	.	8gg'J
.	.	32ccLL	.
.	.	32b-JJJ)	.
8AAn	7	(8.ccTL	8r
.	6#\	.	.
8F#XJ	6 5	.	8ddd
.	.	32b-LL	.
.	.	32anJJJ)	.
=114	=114	=114	=114
8GL	.	16b-'LL	(8.ddL
.	.	(16dd	.
8GG	.	16f#X	.
.	.	16gJJ)	32eenLL
.	.	.	32ffnJJJ)
8C	7 n	8r	(8.eeL
8BB-J	4nr 2	8c	.
.	.	.	32ffLL
.	.	.	32ggJJJ)
=115	=115	=115	=115
8AA-XL	6	(8.ccTL	(16ffLL
.	.	.	16cc)
8D-X	7	.	(16g
.	.	32b-LL	16a-XJJ)
.	.	32a-JJJ)	.
8GG	7	(8.b-TL	8r
.	6nr	.	.
8EnJ	6 5	.	8ccc
.	.	32a-LL	.
.	.	32gJJJ)	.
=116	=116	=116	=116
8FL	9	(16a-LL	(8.ccL
.	.	16cc)	.
8A-	6	(16gg	.
.	.	16ffJJ)	32ddLL
.	.	.	32ee-XJJJ)
8BBn	6 5	8r	(8.ddL
8GJ	.	8bn	.
.	.	.	32ee-LL
.	.	.	32ffJJJ)
=117	=117	=117	=117
(8.CL	.	8ccL	(16ee-LL
.	.	.	16cc)
.	.	8cJ	(16ee-
32DLL	.	.	16ggJJ)
32E-JJJ)	.	.	.
(8.DL	7	4r	(16ffLL
.	.	.	16cc)
.	6nr	.	(16ff
32E-LL	.	.	16aa-JJ)
32FJJJ)	.	.	.
!!LO:LB:g=original
=118	=118	=118	=118
(16E-LL	6	4c	4gg
16D	.	.	.
16C	.	.	.
16BBnJJ)	.	.	.
16CLL	.	4e-	4r
16G	.	.	.
16E-	.	.	.
16CJJ	.	.	.
=119	=119	=119	=119
16BBnLL	6	4g	8r
16GG	.	.	.
16BB	.	.	4gg
16DJJ	.	.	.
(16CLL	6 5	4a-	.
16BB	.	.	.
16C)	4	.	[8ff
16E-'JJ	.	.	.
=120	=120	=120	=120
(16DLL	6nr	4Bn	(16ffLL]
16C	.	.	16ee-
16BBn	.	.	16dd
16AAnJJ)	.	.	16ccJJ
16GGLL	7 n	8r	16bnLL
(16D	.	.	16anJ
16E-	6	8g	8gJ)
16BBJJ)	.	.	.
=121	=121	=121	=121
(16CLL	4#| 3-r	4f#X	8r
16BBn	.	.	.
16C)	.	.	4ee-
16A-X'JJ	.	.	.
(16A-LL	6nr 5	4fn	.
16G	.	.	.
16A-)	4	.	8dd
16BB-X'JJ	.	.	.
=122	=122	=122	=122
(16BB-LL	4nr -	4en	8r
16AAn	.	.	.
16BB-)	.	.	4dd-X
16G'JJ	.	.	.
(16GLL	6-r 5-r	[4e-X	.
16F	.	.	.
16G)	4	.	8cc
16AA-X'JJ	.	.	.
!!LO:LB:g=original
=123	=123	=123	=123
(16AA-LL	7	8e-L]	4r
16GG	.	.	.
16AA-)	6	8d	.
16F'JJ	.	.	.
(16FLL	6-r 5	8d-X	[4aa-
16E-	.	.	.
16F)	5	8cJ	.
16AA-'JJ	.	.	.
=124	=124	=124	=124
8GGL	7 n	8BnL	16aa-LL]
.	.	.	(16ff
8F	4nr 2	16AnL	16ccc
.	.	16GJJ	16bbnJJ)
8E-	6	8cL	16r
.	.	.	(16ggLL
8DJ	6nr	8fJ	16bn
.	.	.	16ccJJ)
=125	=125	=125	=125
16CLL	.	4e-T	4r
16GJ	.	.	.
[8cJ	.	.	.
16cLL]	4 2	4dt	8r
16A-J	.	.	.
[8B-J	6	.	8g
=126	=126	=126	=126
16B-LL]	4nr 2	4c	(8.ccTL>
16GJ	.	.	.
[8A-J	6	.	.
.	.	.	32b-LL
.	.	.	32a-JJJ)
16A-LL]	4 2	8r	(8.ccTL
16F	.	.	.
16G	6nr	8en	.
16cJJ	.	.	32a-LL
.	.	.	32gJJJ)
=127	=127	=127	=127
16FLL	.	(8.fL	(32a-LLL>
.	.	.	32b-JJ
16EnJ	.	.	8.ccJ)
[8FJ	.	.	.
.	.	32gLL	.
.	.	32a-JJJ)	.
16FLL]	4 2	(8.gL	8r
16dJ	.	.	.
[8E-XJ	6 5	.	8cc
.	.	32anLL	.
.	.	32b-JJJ)	.
!!LO:LB:g=original
=128	=128	=128	=128
16E-LL]	4nr 2	(32anLLL	(8.ffTL
.	.	32gJJ	.
16cJ	.	8.fJ)	.
[8DJ	6	.	.
.	.	.	32ee-LL
.	.	.	32ddJJJ)
16DLL]	4 2	8r	(8.ee-TL
16BB-	.	.	.
16C	6nr	8a	.
16FJJ	.	.	32ddLL
.	.	.	32ccJJJ)
=129	=129	=129	=129
16BB-LL	.	(8.b-L	(32ddLLL
.	.	.	32ee-JJ
16FJ	.	.	8.ffJ)
[8B-J	.	.	.
.	.	32ccLL	.
.	.	32ddJJJ)	.
16B-LL]	4 2	(8.ccL	8r
16GJ	.	.	.
[8A-J	6 5	.	8ff
.	.	32ddLL	.
.	.	32ee-JJJ)	.
=130	=130	=130	=130
16A-LL]	4 2	(32ddLLL	(8.bb-TL
.	.	32ccJJ	.
16FJ	.	8.b-J)	.
[8GJ	6	.	.
.	.	.	32aa-LL
.	.	.	32ggJJJ)
16GLL]	4 2	8r	(8.aa-TL
16E-	.	.	.
16F	6	8dd	.
16B-JJ	.	.	32ggLL
.	.	.	32ffJJJ)
=131	=131	=131	=131
16E-LL	.	(8.ee-L	(32ggLLL
.	.	.	32aa-JJ
16DJ	.	.	8.bb-J)
[8E-J	.	.	.
.	.	32ffLL	.
.	.	32ggJJJ)	.
16E-LL]	4 2	(8.ffL	8r
16cJ	.	.	.
[8D-XJ	6 5	.	8bb-
.	.	32ggLL	.
.	.	32aa-JJJ)	.
=132	=132	=132	=132
16D-LL]	4 2	(32ggLLL	(8.eee-TL
.	.	32ffJJ	.
16B-J	.	8.ee-J)	.
[8CJ	6	.	.
.	.	.	32ddd-XLL
.	.	.	32cccJJJ)
16CLL]	4 2-r	4r	(8.ddd-TL
16AA-	.	.	.
16BB-	6 3-r	.	.
16E-JJ	.	.	32cccLL
.	.	.	32bb-JJJ)
!!LO:LB:g=original
=133	=133	=133	=133
16AA-LL	.	4r	(16cccLL
16E-JJ	.	.	16aa-
4A-	.	.	16ddn
.	.	.	16ee-JJ)
.	4-r 2	8r	(16bb-LL
.	.	.	16gg
8G	6 5-r	8e-	16cc
.	.	.	16dd-XJJ)
=134	=134	=134	=134
8A-L	9	(8.ee-TL	16ccLL
.	.	.	16ffJJ
8c	6	.	4aa-
.	.	32dd-XLL	.
.	.	32ccJJJ)	.
8B-	7 -	(8.dd-TL	.
8E-J	7-r	.	8gg
.	.	32ccLL	.
.	.	32b-JJJ)	.
=135	=135	=135	=135
16AA-LL	.	(16ccLL	(8.aa-TL
16CJ	.	16a-	.
[>8FJ	7 5	16d	.
.	.	16e-JJ)	32ggLL
.	.	.	32ffJJJ)
16FLL]	4 2	(16b-LL	(8.ggtL
16EnJ	.	16g	.
8B-J	6 4nr 2	16c	.
.	.	16d-XJJ)	32ffLL
.	.	.	32eenJJJ)
=136	=136	=136	=136
8A-L	6	[4c	16ff'LL
.	.	.	(16cc
8c	.	.	16g
.	.	.	16a-JJ)
8A-	.	16cLL]	[4ff
.	.	16f	.
8FJ	.	(16b-	.
.	.	16a-JJ)	.
=137	=137	=137	=137
8D-XL	6	[4B-	16ffLL]
.	.	.	(16dd-X
8B-	.	.	16an
.	.	.	16b-JJ)
8G-X	6	16B-LL]	[4ee-
.	.	16e-'	.
8E-J	.	(16g-X	.
.	.	16fJJ)	.
!!LO:LB:g=original
=138	=138	=138	=138
(8AAnL	7-r 5	(16g-XLL	(16ee-LL]
.	.	16f	16ddn
8AA	.	16g-)	16ee-)
.	.	16ee-'JJ	16ccc'JJ
8AA	.	(16ee-LL	(16cccLL
.	.	16dd-X	16bb-
8AAJ)	.	16ee-)	16ccc)
.	.	16g-'JJ	16ee-'JJ
=139	=139	=139	=139
(8BB-L	-	(16fLL	(16dd-XLL
.	.	16e-	16cc
8BB-	.	16f)	16dd-)
.	.	16dd-X'JJ	16bb-'JJ
8BB-	.	(16dd-LL	(16bb-LL
.	.	16cc	16aan
8BB-J)	.	16dd-)	16bb-)
.	.	16f'JJ	16dd-'JJ
=140	=140	=140	=140
(8FFL	7 n	(16e-LL	(16ccLL
.	.	16dn	16b-
8FF	.	16e-)	16cc)
.	.	16cc'JJ	16aan'JJ
8FF	.	(16ccLL	(16aaLL
.	.	16b-	16gg
8FFJ)	.	16cc)	16aa)
.	.	16e-'JJ	16cc'JJ
=141	=141	=141	=141
(16BB-LL	-	(16d-XLL	(16b-LL
16C	.	16cJ	16an
16D-X	6	8B-J)	16b-
16E-JJ)	.	.	16ccJJ)
(16FLL	6-r	8r	16dd-XLL
16GJ	.	.	16ee-
8A-J)	4nr 2nr	16ddnLL	16ff
.	.	16ee-JJ	16ggJJ
=142	=142	=142	=142
(8BBnL	7 5	(16ffLL	(16aa-XLL
.	.	16ee-	16gg
8BB	.	16ff)	16aa-)
.	.	16dd'JJ	16ff'JJ
8BB	.	(16fLL	(16ddnLL
.	.	16e-	16cc
8BBJ)	.	16f)	16dd)
.	.	16ff'JJ	16aa-'JJ
!!LO:LB:g=original
=143	=143	=143	=143
(8CL	.	(16ee-LL	(16ggLL
.	.	16dd	16ff
8C	.	16ee-)	16gg)
.	.	16cc'JJ	16ee-'JJ
8C	.	(16e-LL	(16ccLL
.	.	16d	16bn
8CJ)	.	16e-)	16cc)
.	.	16ee-'JJ	16gg'JJ
=144	=144	=144	=144
(8GGL	7 n	(16ddLL	(16ffLL
.	.	16cc	16ee-
8GG	.	16dd)	16ff)
.	.	16bn'JJ	16dd'JJ
8GG	.	(16dLL	(16bnLL
.	.	16c	16an
8GGJ)	.	16d)	16b)
.	.	16dd'JJ	16ff'JJ
=145	=145	=145	=145
(16CLL	.	4cc	(16ee-LL
16BBn	.	.	16ddJ)
16C)	.	.	8ee-'J
16A-'JJ	.	.	.
(16A-LL	6 5	8r	8fL
16G	.	.	.
16A-)	.	[8a-	8eee-J
16C'JJ	.	.	.
=146	=146	=146	=146
(16BB-XLL	7	8a-L]	(16dddLL
16AAn	.	.	16cccJ)
16BB-)	6	8gJ	8ddd'J
16G'JJ	.	.	.
(16GLL	6 5	8r	8e-L
16F	.	.	.
16G)	.	[8gg	8dddJ
16BB-'JJ	.	.	.
=147	=147	=147	=147
(16AA-XLL	7	8ggL]	(16cccLL
16GG	.	.	16bbnJ)
16AA-)	6	8ffJ	8ccc'J
16F'JJ	.	.	.
(16FLL	6 5	8r	8dL
16E-	.	.	.
16F)	.	[8f	8cccJ
16AA-'JJ	.	.	.
!!LO:LB:g=original
=148	=148	=148	=148
8GGL	7_ n	(16fLL>]	2bbnt
.	.	16a-)	.
8GJ	.	(16ee-	.
.	.	16ddJJ)	.
8r	.	(16dLL	.
.	.	16f)	.
8G	.	(16a-	.
.	.	16gJJ)	.
=149	=149	=149	=149
8AA-L	7_ 5	(16e-LL	2cccT
.	.	16g)	.
8A-J	.	(16dd	.
.	.	16ccJJ)	.
8r	.	(16cLL	.
.	.	16e-)	.
8A-	.	(16g	.
.	.	16fJJ)	.
=150	=150	=150	=150
8BBnL	7 5	(16dLL	2aa-T
.	.	16f)	.
8D	.	(16cc	.
.	.	16bnJJ)	.
8F	4nr 3-r	(16BnLL	.
.	.	16d)	.
8DJ	.	(16f	.
.	.	16e-JJ)	.
=151	=151	=151	=151
8E-L	6	(16cLL	[2ggt
.	.	16e-)	.
8C	.	(16g	.
.	.	16a-JJ)	.
8F	6 5	(16dLL	.
.	.	16g)	.
8DJ	n	(16cc	.
.	.	16bnJJ)	.
=152	=152	=152	=152
8E-L	6	8cc'L	16ggLL]
.	.	.	(16ee-
8A-	.	8e-'	16bn
.	.	.	16ccJJ)
8F	6 5	8a-'	(16ddLL
.	.	.	16ff)
8GJ	n	8d'J	(16ccc
.	.	.	16bbnJJ)
!!LO:LB:g=original
=153	=153	=153	=153
8CL	.	8r	(16ee-LL
.	.	.	16cc)
8F	.	8c'L	(16g
.	.	.	16a-JJ)
8D-X	6 5	8f'	(16b-LL
.	.	.	16dd-X)
8E-J	.	8B-'J	(16aa-
.	.	.	16ggJJ)
=154	=154	=154	=154
8AA-L	.	8r	(16ccLL
.	.	.	16a-)
8D-X	5	8A-'L	(16en
.	.	.	16fJJ)
8BB-	6 5 -	8d-X'	(16gLL
.	.	.	16b-)
8CJ	n	8G'J	(16ff
.	.	.	16eenJJ)
=155	=155	=155	=155
4FF	.	16r	(8.aa-TL
.	.	(16ffLL	.
.	.	16bn	.
.	.	16ccJJ)	32ggLL
.	.	.	32ffJJJ)
4r	.	16a-'LL	(8.ffTL
.	.	(16dd-X	.
.	.	16g	.
.	.	16a-JJ)	32ee-LL
.	.	.	32dd-XJJJ)
=156	=156	=156	=156
4FF	6-r	(8.a-TL	16dd-X'LL
.	.	.	(16aa-
.	.	.	16een
.	.	32gLL	16ffJJ)
.	.	32fJJJ)	.
4r	.	(8.fTL	16a-'LL
.	.	.	(16ff
.	.	.	16cc
.	.	32e-LL	16dd-XJJ)
.	.	32d-XJJJ)	.
=157	=157	=157	=157
8r	.	16d-X'LL	[>4f
.	.	(16dd-X	.
8FFL	6-r_	16g	.
.	.	16a-JJ)	.
8FF	.	16d-'LL	16fLL]
.	.	(16a-	(16ff
8FFJ	.	16Bn	16ddn
.	.	16cJJ)	16ee-JJ)
!!LO:LB:g=original
=158	=158	=158	=158
*MM54	*	*MM54	*MM54
.	.	.	(8qqf
!!LO:TX:a:tempo:t=Adagio
2FF#X	7 5	2cT	2e-T)
=159	=159	=159	=159
8GGL	n	4Bn	4d
16GL	.	.	.
*MM104	*	*MM104	*MM104
!!LO:TX:a:tempo:t=Allegro
16A-JJ	.	.	.
16GLL	.	8r	4r
16F	.	.	.
16E-	.	8g	.
16DJJ	.	.	.
=160	=160	=160	=160
8E-L	6	(8.ccL	2r
8C	.	.	.
.	.	32ddLL)	.
.	.	32ee-JJJ	.
8BBn	6	(8.ddL	.
8GGJ	.	.	.
.	.	32ee-LL)	.
.	.	32ffJJJ	.
=161	=161	=161	=161
8CL	.	(16ee-LL	4cc
.	.	16dd	.
8CCJ	.	16cc	.
.	.	16bnJJ)	.
4r	.	16ccLL	4ee-
.	.	16gg	.
.	.	16ee-	.
.	.	16ccJJ	.
=162	=162	=162	=162
8r	.	16bnLL	4gg
.	.	16g	.
4G	n	16b	.
.	.	16ddJJ	.
.	4 2	(16ccLL	4aa-
.	.	16b	.
[8F	7 5	16cc)	.
.	.	16ee-'JJ	.
!!LO:LB:g=original
=163	=163	=163	=163
8FL]	4nr 2	(16ddLL	4bn
.	.	16cc	.
(16GL	.	16bn	.
16FJJ)	.	16anJJ)	.
8E-L	6	16gLL	8r
.	.	16dd	.
8CJ	.	16ee-	8gg
.	.	16bJJ	.
=164	=164	=164	=164
8AAnL	6#\ 5-r	(16ccLL	4ff#X
.	.	16bn	.
[8DJ	.	16cc)	.
.	.	16aa-'JJ	.
16DLL]	7 5-r	(16aa-LL	4ffn
16En	.	16gg	.
16F	.	16aa-)	.
16DJJ	.	16b-X'JJ	.
=165	=165	=165	=165
8GGL	6nr 5-r	(16b-LL	4een
.	.	16an	.
[8CJ	.	16b-)	.
.	.	16gg'JJ	.
16CLL>]	7 -	(16ggLL	[4ee-X
16D	.	16ff	.
16E-	.	16gg)	.
16CJJ	.	16a-X'JJ	.
=166	=166	=166	=166
8FFL	7	(16a-LL	8ee-L]
.	.	16g	.
8FJ	6	16a-)	8dd
.	.	16ff'JJ	.
8r	.	(16ffLL	8dd-X
.	.	16een	.
[8F	5	16ff)	8ccJ
.	.	16a-'JJ	.
=167	=167	=167	=167
.	.	(8qqa-/	.
16FLL]	4nr 2	4g)	8bnL
16D	.	.	.
16E-	.	.	16anL
16FJJ	.	.	16gJJ
16E-LL	6	8r	8ccL
16D	.	.	.
16C	5 4 2	8g	8ffJ
16BBnJJ	.	.	.
!!LO:LB:g=original
=168	=168	=168	=168
16CLL	.	(8.ggtL	4ee-T
16GJJ	.	.	.
4c	.	.	.
.	.	32ffLL	.
.	.	32ee-JJJ)	.
.	4 2	(8.ffTL	4ddt
8Bn	6 5	.	.
.	.	32ee-LL	.
.	.	32ddJJJ)	.
=169	=169	=169	=169
8cL	.	(16ee-LL	4cc
.	.	16ff	.
8B-X	.	16gg)	.
.	.	16ee-'JJ	.
8A-X	5 3	(16ccLL	4r
.	.	16dd	.
8GJ	.	16ee-)	.
.	.	16cc'JJ	.
=170	=170	=170	=170
(8.F#XL	6 5	(16ddLL	2r
.	.	16cc	.
.	.	16dd)	.
32GLL	.	16ccc'JJ	.
32AnJJJ)	.	.	.
(8.GL	.	(16bb-XLL	.
.	.	16aan	.
.	.	16bb-)	.
32ALL	.	16dd'JJ	.
32B-JJJ)	.	.	.
=171	=171	=171	=171
(8.EnL	6 5	(16ccLL	4r
.	.	16b-	.
.	.	16cc)	.
32F#XLL	.	16bb-'JJ	.
32GJJJ)	.	.	.
(8.F#L	6 5	(16aanLL	8r
.	.	16gg	.
.	.	16aa)	8dd
32GLL	.	16cc'JJ	.
32AnJJJ)	.	.	.
=172	=172	=172	=172
8GL	.	16b-LL	(8.ggL
.	.	16anJJ	.
8E-X	.	4g	.
.	.	.	32aanLL
.	.	.	32bb-JJJ)
8C	6 5	.	(8.aaL
8DJ	#	8f#X	.
.	.	.	32bb-LL
.	.	.	32cccJJJ)
!LO:TX:b:t=[segno]	!	!	!LO:TX:a:t=[segno]
=||	=||	=||	=||
*-	*-	*-	*-
!!!system-decoration: [(s1,s2,s3)]
!!!RDF**kern: > = above
!!!RDF**kern: < = below
!!!URL-pdf: https://s9.imslp.org/files/imglnks/usimg/5/55/IMSLP10042-BWV1079-b.pdf#page=23 @{SMS}
!!!URL-youtube: https://www.youtube.com/watch?v=3QWxjD2qBAc&t=360s Netherlands Bach Society
!!!SMS: Bach-Gesellschaft Ausgabe, Band 31.2 Leipzig: Breitkopf und Härtel, 1885. Plate B.W. XXXI(2).
!!!PED: Alfred Döffel
!!!PED-ODT: 1821-1905
!!!ENC: Craig Stuart Sapp
!!!END: 2024/03/31
!!!EED: Craig Stuart Sapp
!!!EEV: 2024/03/31
!!!title: @{OTL}, @{OMV}. @{OTL} (@{SCA})
